icons/ie-fill.svg

<svg xmlns="http://www.w3.org/2000/svg" width="24" height="24" fill="none"><g clip-path="url(#a)"><g><path fill="#121212" d="M8.61202 20.12C5.86802 21.61 3.49902 21.919 2.19002 20.61C0.84602 19.27 1.56202 15.759 3.50302 12.237C4.48907 10.4454 5.70763 8.79213 7.12702 7.31998C7.31402 7.13298 8.25202 6.19598 8.31402 6.19598C8.31402 6.19598 7.81402 6.50898 7.75202 6.50898C5.80202 7.60398 4.08902 9.58898 3.71502 10.034C4.18808 7.92323 5.40521 6.05333 7.14377 4.7663C8.88233 3.47927 11.0261 2.86115 13.183 3.02498C16.278 1.62298 19.157 1.29898 20.375 2.51498C21.5 3.63798 21.437 5.50998 20.5 7.75698C20.49 7.77798 20.482 7.79998 20.473 7.82098C21.1498 9.10987 21.5023 10.5442 21.5 12C21.5 12.38 21.477 12.753 21.431 13.12H20.627C20.5797 13.1218 20.5324 13.1228 20.485 13.123H8.68902V13.31C8.75102 15.307 10.501 17.054 12.626 17.054C14.126 17.054 15.563 16.243 16.188 15.057H20.968C20.5408 16.2404 19.8703 17.3211 18.9997 18.2294C18.1291 19.1377 17.0778 19.8535 15.9136 20.3305C14.7494 20.8076 13.4981 21.0353 12.2405 20.999C10.9829 20.9628 9.7468 20.6633 8.61202 20.12ZM8.00502 19.799C6.16403 18.7352 4.75745 17.056 4.03302 15.057C2.87202 17.339 2.57302 19.247 3.56402 20.237C4.37702 21.049 6.00202 20.861 8.00202 19.801L8.00502 19.799ZM20.172 7.29198C20.177 7.28063 20.182 7.2693 20.187 7.25798C20.937 5.63598 21 4.26398 20.312 3.45198C19.443 2.58398 17.772 2.70198 15.79 3.61998C17.6098 4.3372 19.1475 5.62578 20.172 7.29198ZM16.563 10.752V10.691C16.438 8.63098 14.813 7.07098 12.813 7.07098C10.688 7.07098 8.87702 8.75598 8.75202 10.691V10.753H16.563V10.752Z"/></g></g><defs><clipPath id="a"><rect width="24" height="24" fill="white"/></clipPath></defs></svg>

<svg width="24" height="24" fill="none" xmlns="http://www.w3.org/2000/svg"><g clip-path="url(#a)"><path d="M8.612 20.12c-2.744 1.49-5.113 1.799-6.422.49-1.344-1.34-.628-4.851 1.313-8.373A23.202 23.202 0 0 1 7.127 7.32c.187-.187 1.125-1.124 1.187-1.124 0 0-.5.313-.562.313-1.95 1.095-3.663 3.08-4.037 3.525a9.004 9.004 0 0 1 9.468-7.009c3.095-1.402 5.974-1.726 7.192-.51 1.125 1.123 1.062 2.995.125 5.242-.01.021-.018.043-.027.064A8.958 8.958 0 0 1 21.5 12c0 .38-.023.753-.069 1.12h-.804a4.198 4.198 0 0 1-.142.003H8.689v.187c.062 1.997 1.812 3.744 3.937 3.744 1.5 0 2.937-.811 3.562-1.997h4.78A9.002 9.002 0 0 1 8.612 20.12Zm-.607-.321a9.03 9.03 0 0 1-3.972-4.742c-1.161 2.282-1.46 4.19-.469 5.18.813.812 2.438.624 4.438-.436l.003-.002ZM20.172 7.292l.015-.034c.75-1.622.813-2.994.125-3.806-.869-.868-2.54-.75-4.522.168a9.032 9.032 0 0 1 4.382 3.672Zm-3.609 3.46v-.061c-.125-2.06-1.75-3.62-3.75-3.62-2.125 0-3.936 1.685-4.061 3.62v.062h7.811v-.001Z" /></g><defs><clipPath id="a"><path fill="#fff" d="M0 0h24v24H0z"/></clipPath></defs></svg>
